brandFactory_export/1.Light/Buscar en la nube_1Light.svg

<?xml version="1.0" encoding="UTF-8"?>
<svg width="24px" height="24px" viewBox="0 0 24 24" version="1.1" xmlns="http://www.w3.org/2000/svg" xmlns:xlink="http://www.w3.org/1999/xlink">
    <title>1.Light/Buscar en la nube_1Light</title>
    <g id="Symbols" stroke="none" stroke-width="1" fill="none" fill-rule="evenodd">
        <g id="1.Light/Buscar-en-la-nube_1Light" fill="#5CB615" fill-rule="nonzero">
            <path d="M11.8117647,19.6235294 C9.35462185,19.6235294 7.35798319,17.6067227 7.35798319,15.1294118 C7.35798319,12.6521008 9.35462185,10.6352941 11.8117647,10.6352941 C14.2689076,10.6352941 16.2689076,12.6521008 16.2689076,15.1294118 C16.2689076,17.6067227 14.2689076,19.6235294 11.8117647,19.6235294 Z M4.54789916,15.9697479 C2.92436975,15.8016807 0.98487395,14.9579832 0.98487395,11.892437 C0.98487395,9.81176471 1.8789916,8.50084034 3.63697479,7.99663866 C3.8487395,7.93613445 3.99663866,7.74117647 3.99327731,7.51932773 L3.98655462,7.38151261 C3.98655462,1.4487395 9.11596639,0.988235294 10.6857143,0.988235294 C11.5764706,0.988235294 16.0672269,1.19327731 17.1394958,5.22016807 C17.1966387,5.43193277 17.3848739,5.58319328 17.6033613,5.58991597 C19.1193277,5.63361345 22.6453782,6.21848739 22.6453782,10.7428571 C22.6453782,15.5495798 18.6487395,15.9226891 17.4218487,15.9226891 L17.189916,15.9226891 C17.2302521,15.6605042 17.2537815,15.394958 17.2537815,15.1260504 C17.2537815,12.0941176 14.8201681,9.63697479 11.8151261,9.63697479 C8.81008403,9.63697479 6.37647059,12.0941176 6.37647059,15.1226891 C6.37647059,15.405042 6.40336134,15.6840336 6.44369748,15.9563025 L4.54789916,15.9697479 Z M17.4184874,16.9210084 C18.4537815,16.9210084 23.6235294,16.6252101 23.6235294,10.7462185 C23.6235294,5.61008403 19.6840336,4.74957983 17.9831933,4.62184874 C16.5781513,0.225210084 11.6739496,0 10.6857143,0 C9.41512605,0 3.1394958,0.349579832 3.00168067,7.16302521 C1.74453782,7.62352941 0,8.82016807 0,11.892437 C0,16.0504202 3.1092437,16.8168067 4.49747899,16.9579832 L6.68571429,16.9546218 C7.43193277,19.0890756 9.44201681,20.6184874 11.8117647,20.6184874 C13.0789916,20.6184874 14.302521,20.1747899 15.2739496,19.3613445 L19.3546218,23.4789916 C19.5462185,23.6705882 19.8554622,23.6739496 20.0470588,23.4823529 L20.0504202,23.4789916 C20.2420168,23.2840336 20.2420168,22.9714286 20.0504202,22.7764706 L15.9731092,18.6621849 C16.4033613,18.1478992 16.7327731,17.5563025 16.9512605,16.9210084 L17.4184874,16.9210084 Z" id="Buscar-en-la-nube_1Light"></path>
        </g>
    </g>
</svg>

<svg width="24" height="24" viewBox="0 0 24 24" xmlns="http://www.w3.org/2000/svg"><path d="M11.812 19.624c-2.457 0-4.454-2.017-4.454-4.495 0-2.477 1.997-4.494 4.454-4.494s4.457 2.017 4.457 4.494c0 2.478-2 4.495-4.457 4.495zM4.548 15.97C2.924 15.802.985 14.958.985 11.892c0-2.08.894-3.391 2.652-3.895a.49.49 0 00.356-.478l-.006-.137c0-5.933 5.129-6.394 6.699-6.394.89 0 5.381.205 6.453 4.232a.498.498 0 00.464.37c1.516.044 5.042.628 5.042 5.153 0 4.807-3.996 5.18-5.223 5.18h-.232c.04-.262.064-.528.064-.797 0-3.032-2.434-5.489-5.439-5.489s-5.439 2.457-5.439 5.486c0 .282.027.561.068.833l-1.896.014zm12.87.951c1.036 0 6.206-.296 6.206-6.175 0-5.136-3.94-5.996-5.64-6.124C16.577.225 11.673 0 10.685 0c-1.27 0-7.547.35-7.684 7.163C1.745 7.623 0 8.82 0 11.893c0 4.157 3.11 4.924 4.497 5.065l2.189-.003c.746 2.134 2.756 3.663 5.126 3.663 1.267 0 2.49-.443 3.462-1.257l4.08 4.118c.192.192.501.195.693.003l.003-.003a.501.501 0 000-.703l-4.077-4.114c.43-.514.76-1.106.978-1.741h.467z" fill="#5CB615" fill-rule="nonzero"/></svg>
